X:37
T:Cassino. WCl.37
M:6/8
L:1/8
Q:3/8=120
S:William Clarke MS,Lincoln,1770.
R:.Jig
O:Lincoln
A:England
N:march/jig/country dance?....
Z:vmp.Barry Callaghan
K:G
c|c2B|A2A A2B|!
c2c  cde|edc B2d|dcB AGA|G2G G3:|!
|:d2d dBG|e2e e3|c2c cAF|d2d d3|!
G2G B2G|d2G g2e|edc BAG|FGA D2A|!
B2A|G2G G2B|c2B c2B|A2A A2B|!
c2c cde|edc B2d|dcB AGA|G2G G2:|

